icons/Partly Cloudy Night--1504931.svg

<svg enable-background="new 0 0 16 16" viewBox="0 0 16 16" xmlns="http://www.w3.org/2000/svg"><path d="m7.5 16c-4.136 0-7.5-3.364-7.5-7.5s3.364-7.5 7.5-7.5c.234 0 .467.011.701.045.204.03.37.182.416.383s-.036.41-.207.526c-1.107.75-1.901 1.877-2.236 3.171-.069.267-.343.43-.61.359-.267-.069-.427-.342-.358-.609.277-1.07.819-2.042 1.568-2.834-3.244.361-5.774 3.12-5.774 6.459 0 3.584 2.916 6.5 6.5 6.5 1.826 0 3.519-.744 4.731-2.039-.239.025-.483.039-.731.039-1.597 0-3.122-.578-4.293-1.628-.206-.184-.223-.5-.039-.706.186-.206.502-.223.706-.038.987.885 2.275 1.372 3.626 1.372.634 0 1.236-.102 1.791-.301.197-.071.423-.009.557.155.134.165.149.396.038.577-1.373 2.235-3.761 3.569-6.386 3.569z"/><path d="m12.5 10h-5.5c-1.103 0-2-.897-2-2s.897-2 2-2c.057 0 .113.002.167.006.416-1.173 1.554-2.006 2.833-2.006 1.654 0 3 1.346 3 3 0 .031-.001.062-.002.094.595.212 1.002.762 1.002 1.406 0 .827-.673 1.5-1.5 1.5zm-5.5-3c-.551 0-1 .449-1 1 0 .552.449 1 1 1h5.5c.275 0 .5-.225.5-.5 0-.228-.153-.421-.362-.48-.297.106-.687-.166-.688-.51v-.001s0 0 0-.001c0-.031.003-.07.009-.099.024-.132.041-.271.041-.409 0-1.103-.897-2-2-2-.974 0-1.823.722-1.977 1.679-.024.153-.119.286-.254.36-.136.074-.298.082-.441.019-.087-.038-.197-.058-.328-.058z"/></svg>

<?xml version="1.0" encoding="utf-8"?>
<!DOCTYPE svg PUBLIC "-//W3C//DTD SVG 1.0//EN" "http://www.w3.org/TR/2001/REC-SVG-20010904/DTD/svg10.dtd">
<svg    fill="#000000" xmlns="http://www.w3.org/2000/svg" xmlns:xlink="http://www.w3.org/1999/xlink" version="1.1" x="0px" y="0px" viewBox="0 0 16 16" style="enable-background:new 0 0 16 16;" xml:space="preserve"><g><path d="M7.5,16C3.364,16,0,12.636,0,8.5S3.364,1,7.5,1c0.234,0,0.467,0.011,0.701,0.045c0.204,0.03,0.37,0.182,0.416,0.383   S8.581,1.838,8.41,1.954c-1.107,0.75-1.901,1.877-2.236,3.171C6.105,5.392,5.831,5.555,5.564,5.484   C5.297,5.415,5.137,5.142,5.206,4.875c0.277-1.07,0.819-2.042,1.568-2.834C3.53,2.402,1,5.161,1,8.5C1,12.084,3.916,15,7.5,15   c1.826,0,3.519-0.744,4.731-2.039C11.992,12.986,11.748,13,11.5,13c-1.597,0-3.122-0.578-4.293-1.628   c-0.206-0.184-0.223-0.5-0.039-0.706c0.186-0.206,0.502-0.223,0.706-0.038C8.861,11.513,10.149,12,11.5,12   c0.634,0,1.236-0.102,1.791-0.301c0.197-0.071,0.423-0.009,0.557,0.155c0.134,0.165,0.149,0.396,0.038,0.577   C12.513,14.666,10.125,16,7.5,16z"></path><path d="M12.5,10H7c-1.103,0-2-0.897-2-2c0-1.103,0.897-2,2-2c0.057,0,0.113,0.002,0.167,0.006C7.583,4.833,8.721,4,10,4   c1.654,0,3,1.346,3,3c0,0.031-0.001,0.062-0.002,0.094C13.593,7.306,14,7.856,14,8.5C14,9.327,13.327,10,12.5,10z M7,7   C6.449,7,6,7.449,6,8c0,0.552,0.449,1,1,1h5.5C12.775,9,13,8.775,13,8.5c0-0.228-0.153-0.421-0.362-0.48   c-0.297,0.106-0.687-0.166-0.688-0.51c0,0,0-0.001,0-0.001c0,0,0,0,0-0.001c0,0,0,0,0,0c0-0.031,0.003-0.07,0.009-0.099   C11.983,7.277,12,7.138,12,7c0-1.103-0.897-2-2-2C9.026,5,8.177,5.722,8.023,6.679c-0.024,0.153-0.119,0.286-0.254,0.36   C7.633,7.113,7.471,7.121,7.328,7.058C7.241,7.02,7.131,7,7,7z"></path></g></svg>
